X: 4174
M: C|
L: 1/8
K: G
|:\
g2(ga) bgeg | fefg afdf |\
[1 gfga b2(ag) | gfed Bdef :|\
[2 g2bg f2af | gfed Bdgd |]


